packages/core/src/svgs/mps.svg

<svg width="24" height="24" viewBox="0 0 24 24" fill="none" xmlns="http://www.w3.org/2000/svg">
<g clip-path="url(#clip0_31_14279)">
<path d="M0 0H24V24H0V0Z" fill="#59C7F2"/>
<path d="M16.2858 4.28564H15.1458C15.1599 5.12588 14.8443 5.93821 14.2667 6.54862C13.6892 7.15904 12.8955 7.51898 12.0558 7.55136H11.9444C11.1046 7.51898 10.311 7.15904 9.7334 6.54862C9.15583 5.93821 8.84029 5.12588 8.85436 4.28564H7.71436C7.71436 5.93564 8.58007 7.37136 9.8615 8.14279C8.57578 8.91422 7.71436 10.3499 7.71436 11.9999C7.71436 13.6499 8.58007 15.0856 9.8615 15.8571C8.57578 16.6285 7.71436 18.0642 7.71436 19.7142H8.85436C8.84032 18.8733 9.15645 18.0603 9.73493 17.4498C10.3134 16.8393 11.1082 16.4798 11.9486 16.4485H12.0515C12.892 16.4798 13.6867 16.8393 14.2652 17.4498C14.8437 18.0603 15.1598 18.8733 15.1458 19.7142H16.2858C16.2858 18.0642 15.4201 16.6285 14.1386 15.8571C15.4244 15.0856 16.2858 13.6499 16.2858 11.9999C16.2858 10.3499 15.4201 8.91422 14.1386 8.14279C15.4244 7.37136 16.2858 5.93564 16.2858 4.28564ZM15.1458 11.9999C15.1598 12.8409 14.8437 13.6538 14.2652 14.2644C13.6867 14.8749 12.892 15.2344 12.0515 15.2656H11.9486C11.1082 15.2344 10.3134 14.8749 9.73493 14.2644C9.15645 13.6538 8.84032 12.8409 8.85436 11.9999C8.84029 11.1597 9.15583 10.3474 9.7334 9.73695C10.311 9.12654 11.1046 8.76659 11.9444 8.73422H12.0558C12.8955 8.76659 13.6892 9.12654 14.2667 9.73695C14.8443 10.3474 15.1599 11.1597 15.1458 11.9999Z" fill="white"/>
</g>
<defs>
<clipPath id="clip0_31_14279">
<rect width="24" height="24" fill="white"/>
</clipPath>
</defs>
</svg>

<svg xmlns="http://www.w3.org/2000/svg" width="24" height="24" fill="none" viewBox="0 0 24 24"><g clip-path="url(#a)"><path fill="#59C7F2" d="M0 0h24v24H0z"/><path fill="#fff" d="M16.286 4.286h-1.14a3.214 3.214 0 0 1-3.09 3.265h-.112a3.214 3.214 0 0 1-3.09-3.265h-1.14c0 1.65.866 3.085 2.147 3.857C8.577 8.914 7.714 10.35 7.714 12s.866 3.086 2.147 3.857c-1.285.771-2.147 2.207-2.147 3.857h1.14a3.214 3.214 0 0 1 3.095-3.265h.103a3.214 3.214 0 0 1 3.094 3.265h1.14c0-1.65-.866-3.085-2.147-3.857 1.285-.771 2.147-2.207 2.147-3.857s-.866-3.086-2.147-3.857c1.285-.772 2.147-2.207 2.147-3.857M15.146 12a3.215 3.215 0 0 1-3.094 3.266h-.103A3.214 3.214 0 0 1 8.854 12a3.214 3.214 0 0 1 3.09-3.266h.112A3.214 3.214 0 0 1 15.146 12"/></g><defs><clipPath id="a"><path fill="#fff" d="M0 0h24v24H0z"/></clipPath></defs></svg>
